X:1
T:Petit Jacquet
T:Petit Jacquet
T:Pierre de Manchicourt
C:Pierre de Manchicourt
%%score [ 1 2 [ 3 4 ] ]
L:1/8
Q:1/4=76
M:2/2
K:F
V:1 treble nm="Superius" snm="S"
V:2 treble nm="Altus" snm="A"
V:3 treble-8 nm="Tenor 1" snm="T 1"
V:4 treble-8 nm="Tenor 2" snm="T 2"
V:1
 z4 z2 d2- |: d2 c2 B2 A2- | A2 c2 d2 e2 | f2 e3 d d2- | d2 c2 d4 | z ddd BB G2 | c2 A2 B4- | %7
w: Pe-|* tit Jac- quet|_ es- toit en|la cui- * sin-|* * ne,|par ung trail- ly veoit- se-|cre- * *|
w: |* grand var- let|_ qui frin- gnoit|la mes- * chi-|* * ne,|pas- sant le temps tres a-|mou- reu- *|
 B2 AG FG A2- | AG G4 F2 |1 G4 z2 d2- :|2 G4 A2 c2 || B2 A2 z d f2 | e2 d2 z2 d2 | c2 B2 A2 G2 | %14
w: |* * * te|ment, le|ment, Jac- quet|cri- a, Jac- quet|cri- a: let,|tout doul- * ce-|
w: |* * * se-|ment, *|||||
 d8 | z4 d2 de | f2 e2 d2 c2 | B2 d4 c2- | cB B4 A2 | B8 | z2 G2 GGdd | f2 e2 d2 f2- | %22
w: ment!|Que faic- tes|vous à nos- tre|cham- be- ri-|* * è- *|re?"|"Je fais", dict il, "à|ton com- man- *|
w: ||||||||
 fe dc d2 e2- | ed d4 c2 | d2 f2 fedc | BA G2 A2 B2 | A2 G2 F3 G | A2 B3 G A2 | B2 f2 fedc | %29
w: |* * * de-|ment, sig- ne du cul que|tu t'en ail- le'ar- ri-|è- * * *||re, si- gne du cul que|
w: |||||||
 BA G2 A2 B2 | A2 G4 F2 | G8 |] %32
w: te- tu t'en ail- le'ar-|ri- è- *|re!"|
w: |||
V:2
 z4 G4 |: F2 E2 G2 C2 | D2 C2 F2 G2 | A2 c4 B2 | A2 A2 AAFF | D2 G3 FED | E2 F2 B,2 F2 | %7
w: tit|Jac- quet es- toit|en la cui- sin-|ne, * *|par ung trail- ly veoit- se-|cre- te- * * *||
w: |var- let qui frin-|gnoit la mes- chi-||ne, pas- sant le temps a-|mou- reu- * * *||
 G2 E2 D2 F2 |"^b" E2 C2 D4 |1 B,4 G4 :|2 z2 D2 F2 E2 || D2 z A B2 c2 | c2 B2 A2 A2 | A2 G2 F2 E2 | %14
w: |* ment, le|grand Jac-|quet cri- a,|Jac- quet cri- a:|"Var- let, tout doul-|ce- ment, tout doul-|
w: |* se- ment,-|_ _|||||
 FEDC B,A, G,2 | z2 G2 GA B2 | A2 G2 G2 A2 | F4 G4- | G4 F4 | D2 DD G2 z D | DDGG B2 G2 | %21
w: ce- * * * ment! * Que|faic- tes vous à|no- stre cham- be-|riè- re?"|* "Je|fais", dict il, "Je fais|à ton com man- de- *|
w: |||||||
 A2 A2 F2 D2 | DDAA F2 c2 | c2 B2 A4 | F2 FE DC B,2- | B,2 B,2 C2 F2- |"^b" F2 E2 D2 CB, | %27
w: * ment, je fais|à ton com- man de _|ment. Si- gne|du cul _ _ _ que|_ t'en ail- le'ar-|* rè- re, * *|
w: ||||||
 C2 D2 F2 FE | DC D4 B,2- | B,2 C3 B, F2- |"^b" F2 E2 D4 | D8 |] %32
w: * si- gne du cul|que tu t'en ail-|_ le'ar- ri- è-|* * re!"|Pe-|
w: |||||
V:3
 d4 c2 B2 |: A2 c2 d2 f2 | f2 e2 d2 cB | c3 d e2 f2 | e4 z2 d2 | ddBB G2 c2 | A2 F2 G2 d2- | %7
w: tit Jac- quet|es- toit en la|cui- sin- ne, * *||par ung|trail- ly veoit- se- cre- te-||
w: |let qui frin- gnoit|la mes- chi- * *||ne, pas-|sant le temps a- mou- reu-||
 d2 c2 d3 c | B2 G2 A4 |1 z2 d2 c2 B2 :|2 G4 z2 c2 || f2 e2 d2 a2 | ggff e2 f2 | e2 d2 c2 B2 | %14
w: |* ment, le|grand var- Jac-|* quet|cri- a,: "Var- let,|tout doul- ce- ment, tout doul-|ce- * * ent!|
w: |* * se-||ment, *||||
 A2 z2 d2 de | f2 e2 d3 c/B/ | cd ec de f2- |"^b" fe dc B2 c2 |"^b" d2 e2 c4 | B4 G2 GG | %20
w: Que faic- tes vous|à nos- tre * *|* * cham- _ _ _ be-|* * ri- * è- re?"||"Je fais", dict il,|
w: ||||||
"^b" d2 e2 d4 | z2 A2 AAdd | f3 g a2 a2 | g2 f2 e2 f2 | fedc BB d2- |"^b" d2 e4 d2 | c2 B2 A4 | %27
w: "à ton, je|fais" dict il "à ton|com- _ _ man-|de- ment. Si- ne|du cul que tu t'en ail- le'ar-|* ri- è-|re, * si-|
w: |||||||
 z2 f2 fedc | B2 A2 d4- |"^b" d2 e4 d2 | cB AG A4 | G8 |] %32
w: gne du cul que tu|t'en ail- le'ar-|* ri- è-|re!" * * * *|s|
w: |||||
V:4
 z8 |: z2 A2 G2 F2 | D2 A2 B2 G2 | FG AB c2 d2 | A4 D4 | G4 z4 | z2 d2 ddBB | G2 A2 B2 F2 | %8
w: |tiit Jac- quet|es- toit en la|cui- _ sin- * ne, *||par|ung trail- ly veoit- se-|cre- te * *|
w: |Le grand var-|let qui frin- gnoit|la _ _ _ _ mes-|chi- *|ne,|pas- sant le temps a-|mou- reu- * *|
"^b" G2 E2 D4 |1 G4 z4 :|2 z2 G2 d2 A2 || B2 c2 G2 F2 | c2 d2 A2 D2 | A2 B2 F2 G2 | D2 G2 GA B2 | %15
w: * ment, Jac-|_|quet cri- a:|"Var- let, tout doul-|ce- ment, tout doul-|ce- * * ment!|Que faic- tes vous à|
w: * se- ment,|_||||||
 A2 c2 B2 AG | F2 c2 B2 A2 | B3 A G2 C2 | G2 _E2 F4 | z2 G2 GGdd | B2 c2 G2 B2 | A4 D4 | %22
w: nos- tre cham- be- *|ri- è- re?" *||* * "Je|fais", dict il, "à ton|com- man- de- *|ment. Si|
w: |||||||
 z2 D2 DDAA | c2 d2 A2 A2 | D4 B2 BA |"^b" GFED C2 B,2 | F2 G2 D2 F2 |"^#" FEDC B,B,FF | %28
w: gne du cul que tu|t'en aile'ar- ri- re,|si- ne du cul|que tu t'en ail- l'ar- ri-|è- re, si- gne|du cul que tu t'en ail- le'ar- riè-|
w: ||||||
 G2 D2 B2 BA |"^b" GFED C2 B,2 | F2 G2 D4 | G8 |] %32
w: re, si- gne du cul|que tu t'en ail- le'ar- ri-|è- * re!"|DÿÿÿL|
w: ||||

